resources/svg/heart-o.svg

<svg xmlns="http://www.w3.org/2000/svg" viewBox="0 0 15 15" fill="none"><path d="M7.5 13.5L7.14645 13.8536C7.34171 14.0488 7.65829 14.0488 7.85355 13.8536L7.5 13.5ZM1.53553 7.53553L1.18198 7.88909H1.18198L1.53553 7.53553ZM6.53553 2.53553L6.18198 2.88909L6.53553 2.53553ZM7.5 3.5L7.14645 3.85355C7.34171 4.04882 7.65829 4.04882 7.85355 3.85355L7.5 3.5ZM8.46447 2.53553L8.11091 2.18198V2.18198L8.46447 2.53553ZM7.85355 13.1464L1.88909 7.18198L1.18198 7.88909L7.14645 13.8536L7.85355 13.1464ZM13.1109 7.18198L7.14645 13.1464L7.85355 13.8536L13.818 7.88909L13.1109 7.18198ZM6.18198 2.88909L7.14645 3.85355L7.85355 3.14645L6.88909 2.18198L6.18198 2.88909ZM7.85355 3.85355L8.81802 2.88909L8.11091 2.18198L7.14645 3.14645L7.85355 3.85355ZM10.9645 1C9.89418 1 8.86772 1.42517 8.11091 2.18198L8.81802 2.88909C9.38729 2.31981 10.1594 2 10.9645 2V1ZM14 5.03553C14 5.84061 13.6802 6.61271 13.1109 7.18198L13.818 7.88909C14.5748 7.13228 15 6.10582 15 5.03553H14ZM15 5.03553C15 2.80677 13.1932 1 10.9645 1V2C12.6409 2 14 3.35905 14 5.03553H15ZM4.03553 2C4.84061 2 5.61271 2.31981 6.18198 2.88909L6.88909 2.18198C6.13228 1.42517 5.10582 1 4.03553 1V2ZM1 5.03553C1 3.35905 2.35905 2 4.03553 2V1C1.80677 1 0 2.80677 0 5.03553H1ZM1.88909 7.18198C1.31981 6.61271 1 5.84061 1 5.03553H0C0 6.10582 0.42517 7.13228 1.18198 7.88909L1.88909 7.18198Z" fill="black"/></svg>

<svg xmlns="http://www.w3.org/2000/svg" viewBox="0 0 15 15" fill="none"><path d="M7.5 13.5l-.354.354a.5.5 0 00.708 0L7.5 13.5zM1.536 7.536l-.354.353.354-.353zm5-5l-.354.353.354-.353zM7.5 3.5l-.354.354a.5.5 0 00.708 0L7.5 3.5zm.964-.964l-.353-.354.353.354zm-.61 10.61L1.889 7.182l-.707.707 5.964 5.965.708-.708zm5.257-5.964l-5.965 5.964.708.708 5.964-5.965-.707-.707zM6.182 2.889l.964.965.708-.708-.965-.964-.707.707zm1.672.965l.964-.965-.707-.707-.965.964.708.708zM10.964 1c-1.07 0-2.096.425-2.853 1.182l.707.707A3.037 3.037 0 0110.964 2V1zM14 5.036c0 .805-.32 1.577-.89 2.146l.708.707A4.036 4.036 0 0015 5.036h-1zm1 0A4.036 4.036 0 0010.964 1v1A3.036 3.036 0 0114 5.036h1zM4.036 2c.805 0 1.577.32 2.146.89l.707-.708A4.036 4.036 0 004.036 1v1zM1 5.036A3.036 3.036 0 014.036 2V1A4.036 4.036 0 000 5.036h1zm.89 2.146A3.035 3.035 0 011 5.036H0c0 1.07.425 2.096 1.182 2.853l.707-.707z" fill="currentColor"/></svg>
